X:400
T: Hongtaiyang zhaoliangle liujiaxia
N: C2017
O: China,Gansu Linxia
S: I, 107]
N: Han Hui
R: Shange, Huar, Sanlaqiang]
M: 4/4
L: 1/16
K: Bb
c2c2c2f2c2b2g2f2 | g2b2b2c2c12g4
c3bg2b2c3bg2B2 | c4c4f4g4 | f8f4z4 |
b4g2b2c4f4 | c2b2b2g2g4
f2g2 | c2g4b2g4g2f2 | f8f4z4 |
b4g2b2c4f4 | c2b2b2g2g4
f2g2 | b2g4b2g4g2f2 | f16 | f4z12

@@@ Tune index: 6955
